X: 6490
T: Cat In The Rain, The
R: reel
M: 4/4
K: Edorian
A|:FEDF A2Ac|BAGB A3A|FEDA c2Ac|BGEE D3A|
FEDF A2Ac|BAGB A3A|d2Ac B2GA|BGEE D3F:|
A2cA G2(3DEF|G2_BA G3_B|d_BBA Gd_BA|_BGGG F3d|
fccA _BdcA|G2DF G3_B|Acc_B A2AF|GEEE D3F:|

